;FLAVOR:Marlin
;TIME:4332
;Filament used: 1.47871m
;Layer height: 0.12
;MINX:96.14
;MINY:88.59
;MINZ:0.12
;MAXX:138.86
;MAXY:146.41
;MAXZ:14.6
;Generated with Cura_SteamEngine 4.11.0
M140 S65
M105
M190 S65
M104 S200
M105
M109 S200
M82 ;absolute extrusion mode
; Ender 3 Custom Start G-code
G92 E0 ; Reset Extruder
G28 ; Home all axes
G1 Z2.0 F3000 ; Move Z Axis up little to prevent scratching of Heat Bed
G1 X0.1 Y20 Z0.3 F5000.0 ; Move to start position
G1 X0.1 Y200.0 Z0.3 F1500.0 E15 ; Draw the first line
G1 X0.4 Y200.0 Z0.3 F5000.0 ; Move to side a little
G1 X0.4 Y20 Z0.3 F1500.0 E30 ; Draw the second line
G92 E0 ; Reset Extruder
G1 Z2.0 F3000 ; Move Z Axis up little to prevent scratching of Heat Bed
G1 X5 Y20 Z0.3 F5000.0 ; Move over to prevent blob squish
G92 E0
G92 E0
G1 F2700 E-5
;LAYER_COUNT:120
;LAYER:0
M107
G1 F300 Z0.32
G0 F6000 X98.591 Y92.024 Z0.32
;TYPE:SKIRT
G1 F300 Z0.12
G1 F2700 E0
G1 F600 X99.01 Y91.577 E0.01223
G1 X99.127 Y91.46 E0.01553
G1 X99.781 Y90.863 E0.0332
G1 X100.486 Y90.328 E0.05086
G1 X101.236 Y89.858 E0.06852
G1 X102.026 Y89.458 E0.0862
G1 X102.848 Y89.13 E0.10386
G1 X103.697 Y88.879 E0.12152
G1 X104.565 Y88.704 E0.1392
G1 X105.445 Y88.609 E0.15686
G1 X106.057 Y88.59 E0.16908
G1 X107.543 Y88.59 E0.19873
G1 X108.427 Y88.63 E0.21639
G1 X109.304 Y88.75 E0.23406
G1 X110.167 Y88.948 E0.25173
G1 X111.008 Y89.223 E0.26938
G1 X111.821 Y89.573 E0.28705
G1 X112.6 Y89.995 E0.30473
G1 X113.336 Y90.486 E0.32238
G1 X114.026 Y91.041 E0.34005
G1 X114.473 Y91.46 E0.35228
G1 X114.59 Y91.577 E0.35558
G1 X115.187 Y92.231 E0.37325
G1 X115.722 Y92.936 E0.39092
G1 X116.192 Y93.686 E0.40858
G1 X116.592 Y94.476 E0.42625
G1 X116.92 Y95.298 E0.44391
G1 X117.171 Y96.147 E0.46158
G1 X117.346 Y97.015 E0.47925
G1 X117.441 Y97.895 E0.49691
G1 X117.46 Y98.507 E0.50913
G1 X117.46 Y99.35 E0.52595
G1 X117.54 Y99.35 E0.52755
G1 X117.54 Y98.507 E0.54437
G1 X117.58 Y97.623 E0.56203
G1 X117.7 Y96.746 E0.5797
G1 X117.898 Y95.883 E0.59737
G1 X118.173 Y95.042 E0.61503
G1 X118.523 Y94.229 E0.63269
G1 X118.945 Y93.45 E0.65037
G1 X119.436 Y92.714 E0.66803
G1 X119.991 Y92.024 E0.6857
G1 X120.41 Y91.577 E0.69792
G1 X120.527 Y91.46 E0.70123
G1 X121.181 Y90.863 E0.7189
G1 X121.886 Y90.328 E0.73656
G1 X122.636 Y89.858 E0.75422
G1 X123.426 Y89.458 E0.77189
G1 X124.248 Y89.13 E0.78955
G1 X125.097 Y88.879 E0.80722
G1 X125.965 Y88.704 E0.82489
G1 X126.845 Y88.609 E0.84256
G1 X127.457 Y88.59 E0.85477
G1 X128.943 Y88.59 E0.88443
G1 X129.827 Y88.63 E0.90209
G1 X130.704 Y88.75 E0.91975
G1 X131.567 Y88.948 E0.93742
G1 X132.408 Y89.223 E0.95508
G1 X133.221 Y89.573 E0.97274
G1 X134 Y89.995 E0.99042
G1 X134.736 Y90.486 E1.00808
G1 X135.426 Y91.041 E1.02575
G1 X135.873 Y91.46 E1.03798
G1 X135.99 Y91.577 E1.04128
G1 X136.587 Y92.231 E1.05895
G1 X137.122 Y92.936 E1.07661
G1 X137.592 Y93.686 E1.09428
G1 X137.992 Y94.476 E1.11195
G1 X138.32 Y95.298 E1.12961
G1 X138.571 Y96.147 E1.14728
G1 X138.746 Y97.015 E1.16495
G1 X138.841 Y97.895 E1.18261
G1 X138.86 Y98.507 E1.19483
G1 X138.86 Y136.493 E1.95288
G1 X138.82 Y137.377 E1.97054
G1 X138.7 Y138.254 E1.9882
G1 X138.502 Y139.117 E2.00587
G1 X138.227 Y139.958 E2.02353
G1 X137.877 Y140.771 E2.0412
G1 X137.455 Y141.55 E2.05888
G1 X136.964 Y142.286 E2.07653
G1 X136.409 Y142.976 E2.0942
G1 X135.99 Y143.423 E2.10643
G1 X135.873 Y143.54 E2.10973
G1 X135.219 Y144.137 E2.1274
G1 X134.514 Y144.672 E2.14506
G1 X133.764 Y145.142 E2.16273
G1 X132.974 Y145.542 E2.1804
G1 X132.152 Y145.87 E2.19806
G1 X131.303 Y146.121 E2.21573
G1 X130.435 Y146.296 E2.2334
G1 X129.555 Y146.391 E2.25106
G1 X128.943 Y146.41 E2.26328
G1 X106.057 Y146.41 E2.72
G1 X105.173 Y146.37 E2.73765
G1 X104.296 Y146.25 E2.75532
G1 X103.433 Y146.052 E2.77299
G1 X102.592 Y145.777 E2.79065
G1 X101.779 Y145.427 E2.80831
G1 X101 Y145.005 E2.82599
G1 X100.264 Y144.514 E2.84365
G1 X99.574 Y143.959 E2.86132
G1 X99.127 Y143.54 E2.87354
G1 X99.01 Y143.423 E2.87685
G1 X98.413 Y142.769 E2.89452
G1 X97.878 Y142.064 E2.91218
G1 X97.408 Y141.314 E2.92984
G1 X97.008 Y140.524 E2.94751
G1 X96.68 Y139.702 E2.96517
G1 X96.429 Y138.853 E2.98284
G1 X96.254 Y137.985 E3.00051
G1 X96.159 Y137.105 E3.01818
G1 X96.14 Y136.493 E3.0304
G1 X96.14 Y98.507 E3.78845
G1 X96.18 Y97.623 E3.80611
G1 X96.3 Y96.746 E3.82377
G1 X96.498 Y95.883 E3.84144
G1 X96.773 Y95.042 E3.8591
G1 X97.123 Y94.229 E3.87676
G1 X97.545 Y93.45 E3.89444
G1 X98.036 Y92.714 E3.9121
G1 X98.591 Y92.024 E3.92977
G0 F6000 X98.986 Y92.182
G1 F600 X99.293 Y91.86 E3.93865
G1 X99.41 Y91.743 E3.94195
G1 X100.051 Y91.159 E3.95925
G1 X100.743 Y90.636 E3.97656
G1 X101.48 Y90.18 E3.99386
G1 X102.255 Y89.793 E4.01115
G1 X103.064 Y89.479 E4.02846
G1 X103.897 Y89.241 E4.04575
G1 X104.749 Y89.081 E4.06305
G1 X105.612 Y89.001 E4.08035
G1 X106.057 Y88.99 E4.08923
G1 X107.543 Y88.99 E4.11889
G1 X108.409 Y89.03 E4.13619
G1 X109.268 Y89.15 E4.1535
G1 X110.112 Y89.348 E4.1708
G1 X110.934 Y89.623 E4.18809
G1 X111.727 Y89.973 E4.20539
G1 X112.485 Y90.394 E4.22269
G1 X113.2 Y90.883 E4.23998
G1 X113.868 Y91.436 E4.25729
G1 X114.19 Y91.743 E4.26617
G1 X114.307 Y91.86 E4.26947
G1 X114.891 Y92.501 E4.28677
G1 X115.414 Y93.193 E4.30408
G1 X115.87 Y93.93 E4.32138
G1 X116.257 Y94.705 E4.33866
G1 X116.571 Y95.514 E4.35598
G1 X116.809 Y96.347 E4.37327
G1 X116.969 Y97.199 E4.39057
G1 X117.049 Y98.062 E4.40787
G1 X117.06 Y98.507 E4.41675
G1 X117.06 Y99.75 E4.44156
G1 X117.94 Y99.75 E4.45912
G1 X117.94 Y98.507 E4.48392
G1 X117.98 Y97.641 E4.50122
G1 X118.1 Y96.782 E4.51853
G1 X118.298 Y95.938 E4.53583
G1 X118.573 Y95.116 E4.55313
G1 X118.923 Y94.323 E4.57043
G1 X119.344 Y93.565 E4.58773
G1 X119.833 Y92.85 E4.60502
G1 X120.386 Y92.182 E4.62232
G1 X120.693 Y91.86 E4.6312
G1 X120.81 Y91.743 E4.6345
G1 X121.451 Y91.159 E4.65181
G1 X122.143 Y90.636 E4.66912
G1 X122.88 Y90.18 E4.68641
G1 X123.655 Y89.793 E4.7037
G1 X124.464 Y89.479 E4.72102
G1 X125.297 Y89.241 E4.73831
G1 X126.149 Y89.081 E4.75561
G1 X127.012 Y89.001 E4.7729
G1 X127.457 Y88.99 E4.78179
G1 X128.943 Y88.99 E4.81144
G1 X129.809 Y89.03 E4.82874
G1 X130.668 Y89.15 E4.84605
G1 X131.512 Y89.348 E4.86335
G1 X132.334 Y89.623 E4.88065
G1 X133.127 Y89.973 E4.89795
G1 X133.885 Y90.394 E4.91525
G1 X134.6 Y90.883 E4.93253
G1 X135.268 Y91.436 E4.94984
G1 X135.59 Y91.743 E4.95872
G1 X135.707 Y91.86 E4.96202
G1 X136.291 Y92.501 E4.97933
G1 X136.814 Y93.193 E4.99664
G1 X137.27 Y93.93 E5.01393
G1 X137.657 Y94.705 E5.03122
G1 X137.971 Y95.514 E5.04854
G1 X138.209 Y96.347 E5.06582
G1 X138.369 Y97.199 E5.08312
G1 X138.449 Y98.062 E5.10042
G1 X138.46 Y98.507 E5.1093
G1 X138.46 Y136.493 E5.86736
G1 X138.42 Y137.359 E5.88466
G1 X138.3 Y138.218 E5.90196
G1 X138.102 Y139.062 E5.91926
G1 X137.827 Y139.884 E5.93656
G1 X137.477 Y140.677 E5.95386
G1 X137.056 Y141.435 E5.97116
G1 X136.567 Y142.15 E5.98845
G1 X136.014 Y142.818 E6.00576
G1 X135.707 Y143.14 E6.01463
G1 X135.59 Y143.257 E6.01794
G1 X134.949 Y143.841 E6.03524
G1 X134.257 Y144.364 E6.05255
G1 X133.52 Y144.82 E6.06985
G1 X132.745 Y145.207 E6.08713
G1 X131.936 Y145.521 E6.10445
G1 X131.103 Y145.759 E6.12174
G1 X130.251 Y145.919 E6.13904
G1 X129.388 Y145.999 E6.15634
G1 X128.943 Y146.01 E6.16522
G1 X106.057 Y146.01 E6.62193
G1 X105.191 Y145.97 E6.63923
G1 X104.332 Y145.85 E6.65654
G1 X103.488 Y145.652 E6.67384
G1 X102.666 Y145.377 E6.69114
G1 X101.873 Y145.027 E6.70844
G1 X101.115 Y144.606 E6.72574
G1 X100.4 Y144.117 E6.74303
G1 X99.732 Y143.564 E6.76033
G1 X99.41 Y143.257 E6.76921
G1 X99.293 Y143.14 E6.77251
G1 X98.709 Y142.499 E6.78982
G1 X98.186 Y141.807 E6.80713
G1 X97.73 Y141.07 E6.82442
G1 X97.343 Y140.295 E6.84171
G1 X97.029 Y139.486 E6.85903
G1 X96.791 Y138.653 E6.87632
G1 X96.631 Y137.801 E6.89362
G1 X96.551 Y136.938 E6.91091
G1 X96.54 Y136.493 E6.9198
G1 X96.54 Y98.507 E7.67785
G1 X96.58 Y97.641 E7.69515
G1 X96.7 Y96.782 E7.71246
G1 X96.898 Y95.938 E7.72976
G1 X97.173 Y95.116 E7.74706
G1 X97.523 Y94.323 E7.76435
G1 X97.944 Y93.565 E7.78166
G1 X98.433 Y92.85 E7.79894
G1 X98.986 Y92.182 E7.81625
G0 F6000 X99.576 Y92.143
G1 F600 X99.693 Y92.026 E7.81955
G1 X100.32 Y91.455 E7.83647
G1 X100.999 Y90.946 E7.85341
G1 X101.722 Y90.503 E7.87033
G1 X102.484 Y90.13 E7.88726
G1 X103.278 Y89.83 E7.9042
G1 X104.096 Y89.606 E7.92112
G1 X104.932 Y89.461 E7.93806
G1 X106.057 Y89.39 E7.96055
G1 X107.543 Y89.39 E7.99021
G1 X108.39 Y89.43 E8.00713
G1 X109.23 Y89.55 E8.02406
G1 X110.055 Y89.748 E8.04099
G1 X110.858 Y90.023 E8.05793
G1 X111.631 Y90.372 E8.07486
G1 X112.367 Y90.792 E8.09177
G1 X113.061 Y91.28 E8.1087
G1 X113.907 Y92.026 E8.13121
G1 X114.024 Y92.143 E8.13451
G1 X114.595 Y92.77 E8.15143
G1 X115.104 Y93.449 E8.16837
G1 X115.547 Y94.172 E8.18529
G1 X115.92 Y94.934 E8.20222
G1 X116.22 Y95.728 E8.21916
G1 X116.444 Y96.546 E8.23608
G1 X116.589 Y97.382 E8.25302
G1 X116.66 Y98.507 E8.27551
G1 X116.66 Y100.15 E8.3083
G1 X118.34 Y100.15 E8.34182
G1 X118.34 Y98.507 E8.37461
G1 X118.38 Y97.66 E8.39153
G1 X118.5 Y96.82 E8.40847
G1 X118.698 Y95.995 E8.4254
G1 X118.973 Y95.192 E8.44234
G1 X119.322 Y94.419 E8.45926
G1 X119.742 Y93.683 E8.47617
G1 X120.23 Y92.989 E8.4931
G1 X120.976 Y92.143 E8.51561
G1 X121.093 Y92.026 E8.51892
G1 X121.72 Y91.455 E8.53584
G1 X122.399 Y90.946 E8.55277
G1 X123.122 Y90.503 E8.56969
G1 X123.884 Y90.13 E8.58663
G1 X124.678 Y89.83 E8.60356
G1 X125.496 Y89.606 E8.62049
G1 X126.332 Y89.461 E8.63742
G1 X127.457 Y89.39 E8.65992
G1 X128.943 Y89.39 E8.68957
G1 X129.79 Y89.43 E8.70649
G1 X130.63 Y89.55 E8.72343
G1 X131.455 Y89.748 E8.74036
G1 X132.258 Y90.023 E8.7573
G1 X133.031 Y90.372 E8.77422
G1 X133.767 Y90.792 E8.79113
G1 X134.461 Y91.28 E8.80806
G1 X135.307 Y92.026 E8.83057
G1 X135.424 Y92.143 E8.83387
G1 X135.995 Y92.77 E8.8508
G1 X136.504 Y93.449 E8.86773
G1 X136.947 Y94.172 E8.88465
G1 X137.32 Y94.934 E8.90158
G1 X137.62 Y95.728 E8.91852
G1 X137.844 Y96.546 E8.93545
G1 X137.989 Y97.382 E8.95238
G1 X138.06 Y98.507 E8.97488
G1 X138.06 Y136.493 E9.73293
G1 X138.02 Y137.34 E9.74985
G1 X137.9 Y138.18 E9.76678
G1 X137.702 Y139.005 E9.78371
G1 X137.427 Y139.808 E9.80065
G1 X137.078 Y140.581 E9.81758
G1 X136.658 Y141.317 E9.83449
G1 X136.17 Y142.011 E9.85142
G1 X135.424 Y142.857 E9.87393
G1 X135.307 Y142.974 E9.87723
G1 X134.68 Y143.545 E9.89415
G1 X134.001 Y144.054 E9.91109
G1 X133.278 Y144.497 E9.92801
G1 X132.516 Y144.87 E9.94494
G1 X131.722 Y145.17 E9.96188
G1 X130.904 Y145.394 E9.9788
G1 X130.068 Y145.539 E9.99574
G1 X128.943 Y145.61 E10.01823
G1 X106.057 Y145.61 E10.47495
G1 X105.21 Y145.57 E10.49187
G1 X104.37 Y145.45 E10.5088
G1 X103.545 Y145.252 E10.52573
G1 X102.742 Y144.977 E10.54267
G1 X101.969 Y144.628 E10.5596
G1 X101.233 Y144.208 E10.57651
G1 X100.539 Y143.72 E10.59344
G1 X99.693 Y142.974 E10.61595
G1 X99.576 Y142.857 E10.61925
G1 X99.005 Y142.23 E10.63617
G1 X98.496 Y141.551 E10.65311
G1 X98.053 Y140.828 E10.67003
G1 X97.68 Y140.066 E10.68696
G1 X97.38 Y139.272 E10.7039
G1 X97.156 Y138.454 E10.72082
G1 X97.011 Y137.618 E10.73775
G1 X96.94 Y136.493 E10.76025
G1 X96.94 Y98.507 E11.5183
G1 X96.98 Y97.66 E11.53522
G1 X97.1 Y96.82 E11.55216
G1 X97.298 Y95.995 E11.56909
G1 X97.573 Y95.192 E11.58603
G1 X97.922 Y94.419 E11.60295
G1 X98.342 Y93.683 E11.61986
G1 X98.83 Y92.989 E11.63679
G1 X99.576 Y92.143 E11.6593
G0 F6000 X99.227 Y93.132
G1 F600 X99.859 Y92.426 E11.67821
G1 X99.976 Y92.309 E11.68151
G1 X100.59 Y91.751 E11.69807
G1 X101.255 Y91.256 E11.71461
G1 X101.964 Y90.826 E11.73116
G1 X102.711 Y90.467 E11.7477
G1 X103.49 Y90.182 E11.76426
G1 X104.292 Y89.973 E11.78079
G1 X105.111 Y89.842 E11.79735
G1 X106.057 Y89.79 E11.81625
G1 X107.543 Y89.79 E11.84591
G1 X108.371 Y89.83 E11.86245
G1 X109.192 Y89.95 E11.87901
G1 X109.997 Y90.148 E11.89555
G1 X110.779 Y90.422 E11.91209
G1 X111.532 Y90.771 E11.92865
G1 X112.247 Y91.191 E11.9452
G1 X112.918 Y91.677 E11.96173
G1 X113.624 Y92.309 E11.98064
G1 X113.741 Y92.426 E11.98394
G1 X114.299 Y93.04 E12.0005
G1 X114.794 Y93.705 E12.01705
G1 X115.224 Y94.414 E12.03359
G1 X115.583 Y95.161 E12.05013
G1 X115.868 Y95.94 E12.06669
G1 X116.077 Y96.742 E12.08323
G1 X116.208 Y97.561 E12.09978
G1 X116.26 Y98.507 E12.11868
G1 X116.26 Y100.55 E12.15945
G1 X118.74 Y100.55 E12.20895
G1 X118.74 Y98.507 E12.24972
G1 X118.78 Y97.679 E12.26626
G1 X118.9 Y96.858 E12.28282
G1 X119.098 Y96.053 E12.29936
G1 X119.372 Y95.271 E12.3159
G1 X119.721 Y94.518 E12.33246
G1 X120.141 Y93.803 E12.34901
G1 X120.627 Y93.132 E12.36554
G1 X121.259 Y92.426 E12.38445
G1 X121.376 Y92.309 E12.38775
G1 X121.99 Y91.751 E12.40431
G1 X122.655 Y91.256 E12.42085
G1 X123.364 Y90.826 E12.4374
G1 X124.111 Y90.467 E12.45394
G1 X124.89 Y90.182 E12.47049
G1 X125.692 Y89.973 E12.48703
G1 X126.511 Y89.842 E12.50358
G1 X127.457 Y89.79 E12.52249
G1 X128.943 Y89.79 E12.55215
G1 X129.771 Y89.83 E12.56869
G1 X130.592 Y89.95 E12.58525
G1 X131.397 Y90.148 E12.60179
G1 X132.179 Y90.422 E12.61833
G1 X132.932 Y90.771 E12.63489
G1 X133.647 Y91.191 E12.65144
G1 X134.318 Y91.677 E12.66797
G1 X135.024 Y92.309 E12.68688
G1 X135.141 Y92.426 E12.69018
G1 X135.699 Y93.04 E12.70674
G1 X136.194 Y93.705 E12.72328
G1 X136.624 Y94.414 E12.73983
G1 X136.983 Y95.161 E12.75637
G1 X137.268 Y95.94 E12.77292
G1 X137.477 Y96.742 E12.78946
G1 X137.608 Y97.561 E12.80601
G1 X137.66 Y98.507 E12.82492
G1 X137.66 Y136.493 E13.58297
G1 X137.62 Y137.321 E13.59952
G1 X137.5 Y138.142 E13.61607
G1 X137.302 Y138.947 E13.63262
G1 X137.028 Y139.729 E13.64915
G1 X136.679 Y140.482 E13.66572
G1 X136.259 Y141.197 E13.68226
G1 X135.773 Y141.868 E13.6988
G1 X135.141 Y142.574 E13.71771
G1 X135.024 Y142.691 E13.72101
G1 X134.41 Y143.249 E13.73757
G1 X133.745 Y143.744 E13.75411
G1 X133.036 Y144.174 E13.77066
G1 X132.289 Y144.533 E13.7872
G1 X131.51 Y144.818 E13.80375
G1 X130.708 Y145.027 E13.82029
G1 X129.889 Y145.158 E13.83684
G1 X128.943 Y145.21 E13.85575
G1 X106.057 Y145.21 E14.31246
G1 X105.229 Y145.17 E14.32901
G1 X104.408 Y145.05 E14.34556
G1 X103.603 Y144.852 E14.36211
G1 X102.821 Y144.578 E14.37864
G1 X102.068 Y144.229 E14.39521
G1 X101.353 Y143.809 E14.41175
G1 X100.682 Y143.323 E14.42829
G1 X99.976 Y142.691 E14.4472
G1 X99.859 Y142.574 E14.4505
G1 X99.301 Y141.96 E14.46706
G1 X98.806 Y141.295 E14.4836
G1 X98.376 Y140.586 E14.50015
G1 X98.017 Y139.839 E14.51669
G1 X97.732 Y139.06 E14.53324
G1 X97.523 Y138.258 E14.54978
G1 X97.392 Y137.439 E14.56633
G1 X97.34 Y136.493 E14.58524
G1 X97.34 Y98.507 E15.34329
G1 X97.38 Y97.679 E15.35983
G1 X97.5 Y96.858 E15.37639
G1 X97.698 Y96.053 E15.39294
G1 X97.972 Y95.271 E15.40947
G1 X98.321 Y94.518 E15.42603
G1 X98.741 Y93.803 E15.44258
G1 X99.227 Y93.132 E15.45912
G0 F6000 X99.624 Y93.278
G1 F600 X100.142 Y92.709 E15.47447
G1 X100.259 Y92.592 E15.47777
G1 X100.859 Y92.048 E15.49394
G1 X101.51 Y91.566 E15.5101
G1 X102.205 Y91.151 E15.52625
G1 X102.937 Y90.807 E15.5424
G1 X103.701 Y90.536 E15.55857
G1 X104.487 Y90.342 E15.57473
G1 X105.288 Y90.226 E15.59088
G1 X106.057 Y90.19 E15.60624
G1 X107.543 Y90.19 E15.6359
G1 X108.352 Y90.23 E15.65206
G1 X109.153 Y90.35 E15.66823
G1 X109.938 Y90.547 E15.68438
G1 X110.699 Y90.822 E15.70052
G1 X111.43 Y91.17 E15.71668
G1 X112.124 Y91.589 E15.73286
G1 X112.772 Y92.074 E15.74901
G1 X113.341 Y92.592 E15.76437
G1 X113.458 Y92.709 E15.76767
G1 X114.002 Y93.309 E15.78383
G1 X114.484 Y93.96 E15.8
G1 X114.899 Y94.655 E15.81615
G1 X115.243 Y95.387 E15.83229
G1 X115.514 Y96.151 E15.84847
G1 X115.708 Y96.937 E15.86462
G1 X115.824 Y97.738 E15.88078
G1 X115.86 Y98.507 E15.89614
G1 X115.86 Y100.95 E15.94489
G1 X119.14 Y100.95 E16.01035
G1 X119.14 Y98.507 E16.0591
G1 X119.18 Y97.698 E16.07526
G1 X119.3 Y96.897 E16.09143
G1 X119.497 Y96.112 E16.10758
G1 X119.772 Y95.351 E16.12373
G1 X120.12 Y94.62 E16.13988
G1 X120.539 Y93.926 E16.15606
G1 X121.024 Y93.278 E16.17221
G1 X121.542 Y92.709 E16.18757
G1 X121.659 Y92.592 E16.19087
G1 X122.259 Y92.048 E16.20703
G1 X122.91 Y91.566 E16.2232
G1 X123.605 Y91.151 E16.23935
G1 X124.337 Y90.807 E16.25549
G1 X125.101 Y90.536 E16.27167
G1 X125.887 Y90.342 E16.28783
G1 X126.688 Y90.226 E16.30398
G1 X127.457 Y90.19 E16.31934
G1 X128.943 Y90.19 E16.349
G1 X129.752 Y90.23 E16.36516
G1 X130.553 Y90.35 E16.38132
G1 X131.338 Y90.547 E16.39747
G1 X132.099 Y90.822 E16.41362
G1 X132.83 Y91.17 E16.42978
